X: 6906
T: Cheer Up Old Hag
R: jig
M: 6/8
K: Gmajor
|BGE EDE|GED D2A|BAB EBE|c3 B2A|
BGE EDE|GED D2A|BAG AFD|1 G3 G2A:|2 G3 G2D||
|:GAG GBd|ege edB|~G3 GBd|ede g2d|
GAG GBd|ege edB|cBA GAB|c3 B2A:|

